assets/illustrations/phone.svg

<svg width="40" height="41" viewBox="0 0 40 41" fill="none" xmlns="http://www.w3.org/2000/svg">
<g id="call">
<mask id="mask0_50_1116" style="mask-type:alpha" maskUnits="userSpaceOnUse" x="0" y="0" width="40" height="41">
<rect id="Bounding box" y="0.0317383" width="40" height="40" fill="#D9D9D9"/>
</mask>
<g mask="url(#mask0_50_1116)">
<path id="call_2" d="M36.5625 38.7817C32.2222 38.7817 27.934 37.8356 23.6979 35.9432C19.4618 34.0508 15.6076 31.3685 12.1354 27.8963C8.66319 24.4241 5.9809 20.5699 4.08854 16.3338C2.19618 12.0977 1.25 7.80952 1.25 3.46924C1.25 2.84424 1.45833 2.3234 1.875 1.90674C2.29167 1.49007 2.8125 1.28174 3.4375 1.28174H11.875C12.3611 1.28174 12.7951 1.44667 13.1771 1.77653C13.559 2.10639 13.7847 2.49702 13.8542 2.9484L15.2083 10.2401C15.2778 10.7956 15.2604 11.2644 15.1562 11.6463C15.0521 12.0283 14.8611 12.3581 14.5833 12.6359L9.53125 17.7401C10.2257 19.0248 11.0503 20.2661 12.0052 21.464C12.9601 22.6619 14.0104 23.8165 15.1562 24.9276C16.2326 26.004 17.3611 27.0022 18.5417 27.9224C19.7222 28.8425 20.9722 29.6845 22.2917 30.4484L27.1875 25.5526C27.5 25.2401 27.908 25.0057 28.4115 24.8494C28.9149 24.6932 29.4097 24.6498 29.8958 24.7192L37.0833 26.1776C37.5694 26.3165 37.9687 26.5682 38.2812 26.9328C38.5937 27.2974 38.75 27.7053 38.75 28.1567V36.5942C38.75 37.2192 38.5417 37.7401 38.125 38.1567C37.7083 38.5734 37.1875 38.7817 36.5625 38.7817Z" fill="#F2EFDE"/>
</g>
</g>
</svg>

<svg width="40" height="41" fill="none" xmlns="http://www.w3.org/2000/svg"><mask id="a" style="mask-type:alpha" maskUnits="userSpaceOnUse" x="0" y="0" width="40" height="41"><path fill="#D9D9D9" d="M0 .032h40v40H0z"/></mask><g mask="url(#a)"><path d="M36.563 38.782c-4.34 0-8.629-.946-12.865-2.839-4.236-1.892-8.09-4.574-11.563-8.047-3.472-3.472-6.154-7.326-8.046-11.562C2.196 12.098 1.25 7.81 1.25 3.469c0-.625.208-1.146.625-1.562.417-.417.938-.625 1.563-.625h8.437c.486 0 .92.165 1.302.495.382.33.608.72.677 1.171l1.354 7.292c.07.556.052 1.024-.052 1.406a2.19 2.19 0 0 1-.573.99L9.531 17.74a25.19 25.19 0 0 0 2.474 3.724 36.645 36.645 0 0 0 3.151 3.464 36.641 36.641 0 0 0 3.386 2.994c1.18.92 2.43 1.762 3.75 2.526l4.895-4.895c.313-.313.721-.547 1.224-.704.504-.156.999-.2 1.485-.13l7.187 1.459c.486.139.886.39 1.198.755.313.364.469.772.469 1.224v8.437c0 .625-.208 1.146-.625 1.563-.417.416-.938.625-1.563.625Z" fill="#F2EFDE"/></g></svg>
